recipes/yammer/icon.svg

<svg height="256" preserveAspectRatio="xMidYMid" viewBox="0 0 256 218" width="256" xmlns="http://www.w3.org/2000/svg"><path d="m245.767868 97.8609328c-.536699-.0267015-1.1001-.0320418-1.687531-.0320418-9.842155.018691-80.614351 7.780803-77.063058 14.992865 3.537942 7.137298 47.11738 10.600476 78.176508 10.613826 6.509814-1.129471 11.22529-7.011801 10.776706-13.737896-.419213-5.903691-4.702126-10.6218372-10.202625-11.8367532m-23.999264 74.8495072c-27.24082-14.923441-67.108756-32.866816-73.645271-28.295528-6.581908 4.606001 51.72071 45.464561 60.345279 50.209409.526018.285705 1.017325.547379 1.48994.798373 5.420395 1.578056 11.433562-.496647 14.645746-5.481808 3.631398-5.674058 2.320356-13.107742-2.835694-17.230446m0-122.8400249c5.15605-4.122704 6.467092-11.5563879 2.835694-17.225106-3.212184-4.987831-9.225351-7.0518531-14.645746-5.4791377-.472615.2429832-.963922.5073276-1.48994.790363-8.624569 4.7528582-66.927187 45.6034079-60.345279 50.2147485 6.536515 4.5686182 46.404451-13.3720866 73.645271-28.3008678zm-163.3594763 109.3718129c-8.1065604 22.888484-15.6096681 33.606446-32.8481248 33.606446-1.6661706 0-7.4657257-.341778-7.839546-.37649-5.5619122-.285706-10.75534441 3.332341-12.2532958 8.923625-1.71957344 6.352275 2.01061925 12.8968 8.3281825 14.707159 4.5686183.803713 9.2600632 1.100099 13.4682118 1.100099 31.7747266 0 42.2790774-18.293164 52.7700774-44.999955l61.9900882-154.6414525c2.234912-7.0064607-1.65816-14.49621763-8.621898-16.72578878-6.843582-2.17616825-14.090356 1.44187835-16.541549 8.09053961l-43.558077 115.12330567h-.6835571l-45.8196897-115.98843267c-3.1000384-6.55520619-10.7686951-9.75404001-17.68704106-7.16132913-7.09724564 2.66213465-10.74199368 10.4269166-8.41095702 17.5668845z" fill="#265495"/></svg>

<?xml version="1.0" encoding="UTF-8" standalone="no"?>
<svg width="256" height="256" viewBox="0 0 256 218" version="1.1" xmlns="http://www.w3.org/2000/svg" xmlns:xlink="http://www.w3.org/1999/xlink" preserveAspectRatio="xMidYMid">
    <g>
        <path d="M245.767868,97.8609328 C245.231169,97.8342313 244.667768,97.828891 244.080337,97.828891 C234.238182,97.847582 163.465986,105.609694 167.017279,112.821756 C170.555221,119.959054 214.134659,123.422232 245.193787,123.435582 C251.703601,122.306111 256.419077,116.423781 255.970493,109.697686 C255.55128,103.793995 251.268367,99.0758488 245.767868,97.8609328 M221.768604,172.71044 C194.527784,157.786999 154.659848,139.843624 148.123333,144.414912 C141.541425,149.020913 199.844043,189.879473 208.468612,194.624321 C208.99463,194.910026 209.485937,195.1717 209.958552,195.422694 C215.378947,197.00075 221.392114,194.926047 224.604298,189.940886 C228.235696,184.266828 226.924654,176.833144 221.768604,172.71044 M221.768604,49.8704151 C226.924654,45.7477111 228.235696,38.3140272 224.604298,32.6453091 C221.392114,27.6574781 215.378947,25.593456 209.958552,27.1661714 C209.485937,27.4091546 208.99463,27.673499 208.468612,27.9565344 C199.844043,32.7093926 141.541425,73.5599423 148.123333,78.1712829 C154.659848,82.7399011 194.527784,64.7991963 221.768604,49.8704151 Z M58.4091277,159.242228 C50.3025673,182.130712 42.7994596,192.848674 25.5610029,192.848674 C23.8948323,192.848674 18.0952772,192.506896 17.7214569,192.472184 C12.1595447,192.186478 6.96611249,195.804525 5.4681611,201.395809 C3.74858766,207.748084 7.47878035,214.292609 13.7963436,216.102968 C18.3649619,216.906681 23.0564068,217.203067 27.2645554,217.203067 C59.039282,217.203067 69.5436328,198.909903 80.0346328,172.203112 L142.024721,17.5616595 C144.259633,10.5551988 140.366561,3.06544187 133.402823,0.83587072 C126.559241,-1.34029753 119.312467,2.27774907 116.861274,8.92641033 L73.303197,124.049716 L72.6196399,124.049716 L26.7999502,8.06128333 C23.6999118,1.50607714 16.0312551,-1.69275668 9.11290914,0.899954202 C2.0156635,3.56208885 -1.62908454,11.3268708 0.701952118,18.4668387 L58.4091277,159.242228 Z" fill="#265495"></path>
    </g>
</svg>
